X: 39141
T: Sweetest When She's Naked
R: waltz
M: 3/4
K: Bminor
"Bm"B2f2f2|"Bm"fe de fd|"G"B2 dd2d|"D/f#" AF EF A2|
"G"B2dd2d|"D/F#"ed ef ab|"Em"f3 g fe|"A"de fe dc|
"Bm"B2f2f2|"Bm"fe de fd|"G"B2 d d2d|"D/f#" AF EF A2|
"Em"B2dd2d|"D/F#"ed ef ab|"G"f3g fe|"A"de fe dc||
"Em"B2e2e2|"Em"e4de|"D"f2aa2a|"D"a4b2|"F#m"af ef ab|
"F#m"af ef ae|"Bm"f2bb2b|"G"b4a2|"D"f2af ed|"A"e2f2a2|"F#m"c3d cA|
"F#m"F2AA2A|"G"B2dd2d|"D/F#"ed ef ab|"Em"f3g fe|"A"de fe dc||

